trunk/Watchdogd/IHM/img/question.svg

<?xml version="1.0" encoding="UTF-8" standalone="no"?>
<svg width="24px" height="24px" viewBox="0 0 24 24" xmlns:rdf="http://www.w3.org/1999/02/22-rdf-syntax-ns#" xmlns="http://www.w3.org/2000/svg" version="1.1" xmlns:cc="http://creativecommons.org/ns#" xmlns:dc="http://purl.org/dc/elements/1.1/">
 <g transform="translate(0 -1028.4)">
  <path d="m22 12c0 5.523-4.477 10-10 10-5.5228 0-10-4.477-10-10 0-5.5228 4.4772-10 10-10 5.523 0 10 4.4772 10 10z" transform="translate(0 1029.4)" fill="#2980b9"/>
  <path d="m22 12c0 5.523-4.477 10-10 10-5.5228 0-10-4.477-10-10 0-5.5228 4.4772-10 10-10 5.523 0 10 4.4772 10 10z" transform="translate(0 1028.4)" fill="#3498db"/>
  <path d="m12 1035.4c-1.727-0.1-3.4306 1.1-3.8438 2.8-0.0403 0.3-0.0546 0.4-0.1562 1.2h2c-0.0526-1.3 1.306-2.3 2.5-2 1.021 0.3 1.763 1.5 1.406 2.5-0.294 0.6-0.998 1-1.562 1.4-0.577 0.5-1.074 1.1-1.313 1.8-0.039 0.4-0.034 0.8-0.031 1.3h2v-1c0.172-0.7 0.688-1.1 1.25-1.4 0.634-0.3 1.087-0.8 1.406-1.4 0.543-1 0.454-2.2-0.125-3.1-0.705-1.3-2.067-2.2-3.531-2.1zm0 10c-0.552 0-1 0.4-1 1 0 0.5 0.448 1 1 1s1-0.5 1-1c0-0.6-0.448-1-1-1z" fill="#2980b9"/>
  <path d="m12 6c-1.727-0.0274-3.4306 1.1749-3.8438 2.875-0.0403 0.2941-0.0546 0.3281-0.1562 1.125h2c-0.0526-1.2477 1.306-2.289 2.5-1.9375 1.021 0.2374 1.763 1.4281 1.406 2.4375-0.294 0.684-0.998 0.992-1.562 1.406-0.577 0.482-1.074 1.094-1.313 1.813-0.039 0.42-0.034 0.859-0.031 1.281h2v-1c0.172-0.624 0.688-1.042 1.25-1.312 0.634-0.312 1.087-0.835 1.406-1.469 0.543-0.974 0.454-2.1746-0.125-3.094-0.705-1.2699-2.067-2.1438-3.531-2.125zm0 10c-0.552 0-1 0.448-1 1s0.448 1 1 1 1-0.448 1-1-0.448-1-1-1z" transform="translate(0 1028.4)" fill="#ecf0f1"/>
 </g>
</svg>

<?xml version="1.0" encoding="UTF-8" standalone="no"?>
<svg
   width="121.90476"
   height="128"
   viewBox="0 0 121.90476 128"
   version="1.1"
   id="svg12"
   sodipodi:docname="question.svg"
   inkscape:version="1.1 (c68e22c387, 2021-05-23)"
   xmlns:inkscape="http://www.inkscape.org/namespaces/inkscape"
   xmlns:sodipodi="http://sodipodi.sourceforge.net/DTD/sodipodi-0.dtd"
   xmlns="http://www.w3.org/2000/svg"
   xmlns:svg="http://www.w3.org/2000/svg">
  <defs
     id="defs16" />
  <sodipodi:namedview
     id="namedview14"
     pagecolor="#ffffff"
     bordercolor="#666666"
     borderopacity="1.0"
     inkscape:pageshadow="2"
     inkscape:pageopacity="0.0"
     inkscape:pagecheckerboard="0"
     showgrid="false"
     fit-margin-top="0"
     fit-margin-left="0"
     fit-margin-right="0"
     fit-margin-bottom="0"
     inkscape:zoom="4.28125"
     inkscape:cx="-2.2189781"
     inkscape:cy="39.240876"
     inkscape:window-width="1920"
     inkscape:window-height="1007"
     inkscape:window-x="0"
     inkscape:window-y="0"
     inkscape:window-maximized="1"
     inkscape:current-layer="svg12" />
  <g
     transform="matrix(6.0952381,0,0,6.0952381,-12.190476,-6280.5333)"
     id="g10">
    <path
       d="M 22,12 C 22,17.523 17.523,22 12,22 6.4772,22 2,17.523 2,12 2,6.4772 6.4772,2 12,2 17.523,2 22,6.4772 22,12 Z"
       transform="translate(0,1029.4)"
       fill="#2980b9"
       id="path2" />
    <path
       d="M 22,12 C 22,17.523 17.523,22 12,22 6.4772,22 2,17.523 2,12 2,6.4772 6.4772,2 12,2 17.523,2 22,6.4772 22,12 Z"
       transform="translate(0,1028.4)"
       fill="#3498db"
       id="path4" />
    <path
       d="m 12,1035.4 c -1.727,-0.1 -3.4306,1.1 -3.8438,2.8 -0.0403,0.3 -0.0546,0.4 -0.1562,1.2 h 2 c -0.0526,-1.3 1.306,-2.3 2.5,-2 1.021,0.3 1.763,1.5 1.406,2.5 -0.294,0.6 -0.998,1 -1.562,1.4 -0.577,0.5 -1.074,1.1 -1.313,1.8 -0.039,0.4 -0.034,0.8 -0.031,1.3 h 2 v -1 c 0.172,-0.7 0.688,-1.1 1.25,-1.4 0.634,-0.3 1.087,-0.8 1.406,-1.4 0.543,-1 0.454,-2.2 -0.125,-3.1 -0.705,-1.3 -2.067,-2.2 -3.531,-2.1 z m 0,10 c -0.552,0 -1,0.4 -1,1 0,0.5 0.448,1 1,1 0.552,0 1,-0.5 1,-1 0,-0.6 -0.448,-1 -1,-1 z"
       fill="#2980b9"
       id="path6" />
    <path
       d="M 12,6 C 10.273,5.9726 8.5694,7.1749 8.1562,8.875 8.1159,9.1691 8.1016,9.2031 8,10 h 2 C 9.9474,8.7523 11.306,7.711 12.5,8.0625 13.521,8.2999 14.263,9.4906 13.906,10.5 13.612,11.184 12.908,11.492 12.344,11.906 11.767,12.388 11.27,13 11.031,13.719 10.992,14.139 10.997,14.578 11,15 h 2 v -1 c 0.172,-0.624 0.688,-1.042 1.25,-1.312 0.634,-0.312 1.087,-0.835 1.406,-1.469 C 16.199,10.245 16.11,9.0444 15.531,8.125 14.826,6.8551 13.464,5.9812 12,6 Z m 0,10 c -0.552,0 -1,0.448 -1,1 0,0.552 0.448,1 1,1 0.552,0 1,-0.448 1,-1 0,-0.552 -0.448,-1 -1,-1 z"
       transform="translate(0,1028.4)"
       fill="#ecf0f1"
       id="path8" />
  </g>
</svg>
